src/lib/packages/icons/src/assets/filled/message-text-plus.svg

<svg width="24" height="24" viewBox="0 0 24 24" fill="none" xmlns="http://www.w3.org/2000/svg">
<path d="M18 3H6C4 3 3 4 3 6V21L6 18H13.7471C13.9811 18 14.057 17.776 14.042 17.661C14.013 17.444 14.001 17.222 14.001 17C14.001 14.24 16.241 12 19.001 12C19.558 12 20.0969 12.0921 20.5979 12.2581C20.7959 12.3241 21.001 12.188 21.001 11.979V6C21 4 20 3 18 3ZM13 13.25H8C7.586 13.25 7.25 12.914 7.25 12.5C7.25 12.086 7.586 11.75 8 11.75H13C13.414 11.75 13.75 12.086 13.75 12.5C13.75 12.914 13.414 13.25 13 13.25ZM16 9.25H8C7.586 9.25 7.25 8.914 7.25 8.5C7.25 8.086 7.586 7.75 8 7.75H16C16.414 7.75 16.75 8.086 16.75 8.5C16.75 8.914 16.414 9.25 16 9.25ZM21.75 16.5C21.75 16.914 21.414 17.25 21 17.25H19.25V19C19.25 19.414 18.914 19.75 18.5 19.75C18.086 19.75 17.75 19.414 17.75 19V17.25H16C15.586 17.25 15.25 16.914 15.25 16.5C15.25 16.086 15.586 15.75 16 15.75H17.75V14C17.75 13.586 18.086 13.25 18.5 13.25C18.914 13.25 19.25 13.586 19.25 14V15.75H21C21.414 15.75 21.75 16.086 21.75 16.5Z" fill="currentColor"/>
</svg>

<svg xmlns="http://www.w3.org/2000/svg" width="24" height="24" fill="none"><path fill="currentColor" d="M18 3H6C4 3 3 4 3 6v15l3-3h7.747c.234 0 .31-.224.295-.339a5.003 5.003 0 0 1-.041-.661c0-2.76 2.24-5 5-5a5.08 5.08 0 0 1 1.597.258.3.3 0 0 0 .402-.278V6c0-2-1-3-3-3Zm-5 10.25H8a.75.75 0 0 1 0-1.5h5a.75.75 0 0 1 0 1.5Zm3-4H8a.75.75 0 0 1 0-1.5h8a.75.75 0 0 1 0 1.5Zm5.75 7.25a.75.75 0 0 1-.75.75h-1.75V19a.75.75 0 0 1-1.5 0v-1.75H16a.75.75 0 0 1 0-1.5h1.75V14a.75.75 0 0 1 1.5 0v1.75H21a.75.75 0 0 1 .75.75Z"/></svg>
